X: 36957
T: Shputnik In Glenshiel
R: reel
M: 4/4
K: Bminor
|:ABBA BBAB|deed eede|fedf edBA:|
|:cFFA FBFF|cFFF eFFA|FBFF cFFF:|
|:"X"ze ed "X"BBAB|"X"deed- "X"dfed|"X"B/c/d ed "X"BAAA:|
|:"X"zc cF "X"ABBA|"X"Bcef- "X"ffBA|"X"AFFF "X"ABBA:|

